X:1
T:Title
%%score { ( 1 3 ) | ( 2 4 ) }
L:1/8
M:2/4
K:C
V:1 treble nm="Grand Piano"
V:3 treble 
V:2 bass 
V:4 bass 
V:1
 z2 z[Q:1/4=100] G/G/ | G2 z2 | G2 z2 | GA Bc | d2 z G | [Ge]2 [Ec]2 | [EG]3 E | A2 G2 | C3 E | %9
 [CE]>[B,D] [B,D][CE] | [DF]4 | [G,DF]>[G,CE] [G,CE][G,DF] | [EG]4 | [Ge]2 [Ec]2 | [EG]3 E | %15
 A2 G2 | C3 E | [CE]>[B,D] [B,D][DG] | G>^F FG | B2 A2 | [G,B,G]3 G | f3 [Ge] | %22
 [Fd]>[E^c] [Fd][Ge] | [Ec]2 [FA]2 | [EG]3 c | B2 A2 | F3 B | A2 G2 | E3 G | f3 [Ge] | %30
 [Fd]>[E^c] [Fd][Ge] | [Ec]2 [FA]2 | [EG]3 [EG] | A>A Ad | G>G G[Ec] | e2 [Fd]2 |[M:3/8] [Ec]3 | %37
[M:1/8] c |[M:2/4] c>C CD | EF GA | _B2 G2 | E2 C2 | A4 | c3 d | c4 | F4 | D4 | [DG]3 [DF] | %48
 [CE]2 [B,D]2 | C4 | F4 | A2 c2 | d4 | G4 | G4 | G2 [FG]2 | [Ec]4 | [FB]2 [G_B]2 | A4 | c3 d | c4 | %61
 F4 | D4 | [DG]3 [DF] | [CE]2 [B,D]2 | C4 | F4 | A2 c2 | d3 e | f4 | A4 | [EG]3 A | F4- | %73
[M:3/8] F2 z |[M:1/8] A |[M:2/4] [Fd]2 [Fd]2 | [E^c]3 [A,FA] | [D_B]2 [DB]2 | [A,DA]3 [A,FA] | %79
 [A,EG]>[A,EG] [A,EG][A,EG] | [A,DF]>[A,DF] [A,DF][A,DF] | [DE]2 [^G,D]2 | [A,^CA]3 A | %83
 [Fd]2 [Fd]2 | [Ec]3 A | e2 e2 | [DFd]3 A | _B>B Bd | A>A AF | E2 A2 |[M:5/8] D2 [CE_B]3 | %91
[M:2/4] A4 | c3 d | c4 | F4 | D4 | [DG]3 [DF] | [CE]2 [B,D]2 | C4 | F4 | A2 c2 | d4 | G4 | G4 | %104
 G2 [FG]2 | [Ec]4 | [FB]2 [G_B]2 | A4 | c3 d | c4 | F4 | D4 | [DG]3 [DF] | [CE]2 [B,D]2 | C4 | F4 | %116
 A2 c2 | d3 e | f4 | A4 | [EG]3 A | F4- |[M:3/8] F2 z |[M:1/8] G/G/ |[M:2/4] G2 z2 | G2 z2 | %126
 GA Bc | d2 z G | [Ge]2 [Ec]2 | [EG]3 E | A2 G2 | C3 E | [CE]>[B,D] [B,D][CE] | [DF]4 | %134
 [G,DF]>[G,CE] [G,CE][G,DF] | [EG]4 | [Ge]2 [Ec]2 | [EG]3 E | A2 G2 | C3 E | [CE]>[B,D] [B,D][DG] | %141
 G>^F FG | B2 A2 | [G,B,G]3 G | f3 [Ge] | [Fd]>[E^c] [Fd][Ge] | [Ec]2 [FA]2 | [EG]3 c | B2 A2 | %149
 F3 B | A2 G2 | E3 G | f3 [Ge] | [Fd]>[E^c] [Fd][Ge] | [Ec]2 [FA]2 | [EG]3 [EG] | A>A Ad | %157
 G>G G[Ec] | e2 [Fd]2 |[M:3/8] [Ec]3 |[M:1/8] [Ec] |[M:2/4] [Fc]4 | [Ec]4 | [Ec]4- | [Ec]4 |] %165
V:2
 z4 | z [G,B,]/[G,B,]/ .[G,B,]2 | z [C,C]/[C,C]/ [C,C]G,/G,/ | G,A, B,C | D2 z G, | %5
 [C,C]2 [C,G,]2 | [C,C]3 [C,G,C] | [C,F,C]2 [C,E,C]2 | [E,G,]3 [C,G,C] | %9
 [G,,G,]>[G,,G,] [G,,G,][G,,G,] | z G, G,G,, | C,>C, C,C, | C,C, C,[C,C] | [C,C]2 [C,G,]2 | %14
 [C,C]3 [C,G,C] | [C,F,C]2 [C,E,C]2 | [C,E,]3 [C,G,C] | [G,,G,]>[G,,G,] [G,,G,][B,,G,] | %18
 [D,B,D]>[D,A,D] [D,A,D][D,B,D] | [D,G,D]2 [D,^F,C]2 | G,,3 G, | [G,B,G]3 [G,,G,] | %22
 [G,,G,]>[G,,G,] [G,,G,][G,,G,] | [C,G,]2 [C,C]2 | [C,C]3[K:treble] E | G2 F2 | D3 G | F2 E2 | %28
 C3 G, | [G,B,G]3[K:bass] [G,,G,] | [G,,G,]>[G,,G,] [G,,G,][G,,G,] | [C,G,]2 [C,C]2 | %32
 [C,C]3 [C,C] | [F,CF]>[F,CF] [F,CF][F,A,F] | [E,C]>[E,C] [E,C][C,G,] | [G,G]2 [G,,G,]2 | %36
[M:3/8] [C,G,]3 |[M:1/8] C |[M:2/4] C>C, C,D, | E,F, G,A, | _B,2 G,2 | E,2 C,2 | [F,CF]4 | %43
 [F,A,F]3 [F,_B,F] | [F,A,F]4 | [F,A,C]4 | [_B,,F,_B,]4 | [B,,G,]3 [B,,G,] | [C,G,]2 [G,,F,]2 | %49
 [C,E,]4 | [F,A,C]4 | [F,CF]2 [A,CF]2 | [_B,F]4 | [_B,DF]4 | [B,DF]4 | [G,B,F]2[K:bass] [G,,G,]2 | %56
 [C,G,]4 | D,2 E,2 | [F,CF]4 | [F,A,F]3 [F,_B,F] | [F,A,F]4 | [F,A,C]4 | [_B,,F,_B,]4 | %63
 [B,,G,]3 [B,,G,] | [C,G,]2 [G,,F,]2 | [C,E,]4 | [F,A,C]4 | [F,CF]2 [A,_EF]2 | [_B,DF]3 [B,DF] | %69
 [_B,DF]4 | [CF]4 | [C,_B,]3 [C,C] | [F,A,C]4- |[M:3/8] [F,A,C]2 z |[M:1/8] A, | %75
[M:2/4] [D,A,]2 [D,A,]2 | [A,,A,]3 D, | G,2 G,2 | F,3 D, | ^C,>C, C,C, | D,>D, D,D, | G,2 _B,,2 | %82
 A,,3 A, | [D,A,]2 [D,A,]2 | [A,,A,]3 A, | [A,CG]2 [A,CG]2 | D,3 A, | _B,>B, B,D | A,>A, A,F, | %89
 E,2 A,2 |[M:5/8] D,2 C,3 |[M:2/4] [F,CF]4 | [F,A,F]3 [F,_B,F] | [F,A,F]4 | [F,A,C]4 | %95
 [_B,,F,_B,]4 | [B,,G,]3 [B,,G,] | [C,G,]2 [G,,F,]2 | [C,E,]4 | [F,A,C]4 | [F,CF]2 [A,CF]2 | %101
 [_B,F]4 | [_B,DF]4 | [B,DF]4 | [G,B,F]2[K:bass] [G,,G,]2 | [C,G,]4 | D,2 E,2 | [F,CF]4 | %108
 [F,A,F]3 [F,_B,F] | [F,A,F]4 | [F,A,C]4 | [_B,,F,_B,]4 | [B,,G,]3 [B,,G,] | [C,G,]2 [G,,F,]2 | %114
 [C,E,]4 | [F,A,C]4 | [F,CF]2 [A,_EF]2 | [_B,DF]3 [B,DF] | [_B,DF]4 | [CF]4 | [C,_B,]3 [C,C] | %121
 [F,A,C]4- |[M:3/8] [F,A,C]2 z |[M:1/8] z |[M:2/4] z [G,B,]/[G,B,]/ .[G,B,]2 | %125
 z [C,C]/[C,C]/ [C,C]G,/G,/ | G,A, B,C | D2 z G, | [C,C]2 [C,G,]2 | [C,C]3 [C,G,C] | %130
 [C,F,C]2 [C,E,C]2 | [E,G,]3 [C,G,C] | [G,,G,]>[G,,G,] [G,,G,][G,,G,] | z G, G,G,, | C,>C, C,C, | %135
 C,C, C,[C,C] | [C,C]2 [C,G,]2 | [C,C]3 [C,G,C] | [C,F,C]2 [C,E,C]2 | [C,E,]3 [C,G,C] | %140
 [G,,G,]>[G,,G,] [G,,G,][B,,G,] | [D,B,D]>[D,A,D] [D,A,D][D,B,D] | [D,G,D]2 [D,^F,C]2 | G,,3 G, | %144
 [G,B,G]3 [G,,G,] | [G,,G,]>[G,,G,] [G,,G,][G,,G,] | [C,G,]2 [C,C]2 | [C,C]3[K:treble] E | G2 F2 | %149
 D3 G | F2 E2 | C3 G, | [G,B,G]3[K:bass] [G,,G,] | [G,,G,]>[G,,G,] [G,,G,][G,,G,] | %154
 [C,G,]2 [C,C]2 | [C,C]3 [C,C] | [F,CF]>[F,CF] [F,CF][F,A,F] | [E,C]>[E,C] [E,C][C,G,] | %158
 [G,G]2 [G,,G,]2 |[M:3/8] [C,G,]3 |[M:1/8] [C,G,] |[M:2/4] [F,A,]4 | [F,A,]4 | [C,G,]4- | %164
 [C,G,]4 |] %165
V:3
 x4 | z F/F/ FG/G/ | z E/E/ EG/G/ | x4 | x4 | x4 | x4 | x4 | x4 | x4 | B,B, B,[B,DF] | x4 | %12
 CC C[EG] | x4 | x4 | x4 | x4 | x4 | x4 | x4 | x4 | x4 | x4 | x4 | x4 | x4 | x4 | x4 | x4 | x4 | %30
 x4 | x4 | x4 | x4 | x4 | x4 |[M:3/8] x3 |[M:1/8] x |[M:2/4] x4 | x4 | x4 | x4 | x4 | x4 | x4 | %45
 x4 | x4 | x4 | x4 | x4 | x4 | x4 | x4 | x4 | x4 | x4 | x4 | C4 | x4 | x4 | x4 | x4 | x4 | x4 | %64
 x4 | x4 | x4 | x4 | x4 | x4 | x4 | x4 | x4 |[M:3/8] x3 |[M:1/8] x |[M:2/4] x4 | x4 | x4 | x4 | %79
 x4 | x4 | x4 | x4 | x4 | x4 | x4 | x4 | x4 | x4 | x4 |[M:5/8] x5 |[M:2/4] x4 | x4 | x4 | x4 | x4 | %96
 x4 | x4 | x4 | x4 | x4 | x4 | x4 | x4 | x4 | x4 | C4 | x4 | x4 | x4 | x4 | x4 | x4 | x4 | x4 | %115
 x4 | x4 | x4 | x4 | x4 | x4 | x4 |[M:3/8] x3 |[M:1/8] x |[M:2/4] z F/F/ FG/G/ | z E/E/ EG/G/ | %126
 x4 | x4 | x4 | x4 | x4 | x4 | x4 | B,B, B,[B,DF] | x4 | CC C[EG] | x4 | x4 | x4 | x4 | x4 | x4 | %142
 x4 | x4 | x4 | x4 | x4 | x4 | x4 | x4 | x4 | x4 | x4 | x4 | x4 | x4 | x4 | x4 | x4 |[M:3/8] x3 | %160
[M:1/8] x |[M:2/4] x4 | x4 | x4 | x4 |] %165
V:4
 x4 | x4 | x4 | x4 | x4 | x4 | x4 | x4 | x4 | x4 | G,,4 | x4 | x4 | x4 | x4 | x4 | x4 | x4 | x4 | %19
 x4 | x4 | x4 | x4 | x4 | x3[K:treble] x | x4 | x4 | x4 | x4 | x3[K:bass] x | x4 | x4 | x4 | x4 | %34
 x4 | x4 |[M:3/8] x3 |[M:1/8] x |[M:2/4] x4 | x4 | x4 | x4 | x4 | x4 | x4 | x4 | x4 | x4 | x4 | %49
 x4 | x4 | x4 | x4 | x4 | x4 | x2[K:bass] x2 | x4 | x4 | x4 | x4 | x4 | x4 | x4 | x4 | x4 | x4 | %66
 x4 | x4 | x4 | x4 | x4 | x4 | x4 |[M:3/8] x3 |[M:1/8] x |[M:2/4] x4 | x4 | x4 | x4 | x4 | x4 | %81
 x4 | x4 | x4 | x4 | x4 | x4 | x4 | x4 | x4 |[M:5/8] x5 |[M:2/4] x4 | x4 | x4 | x4 | x4 | x4 | x4 | %98
 x4 | x4 | x4 | x4 | x4 | x4 | x2[K:bass] x2 | x4 | x4 | x4 | x4 | x4 | x4 | x4 | x4 | x4 | x4 | %115
 x4 | x4 | x4 | x4 | x4 | x4 | x4 |[M:3/8] x3 |[M:1/8] x |[M:2/4] x4 | x4 | x4 | x4 | x4 | x4 | %130
 x4 | x4 | x4 | G,,4 | x4 | x4 | x4 | x4 | x4 | x4 | x4 | x4 | x4 | x4 | x4 | x4 | x4 | %147
 x3[K:treble] x | x4 | x4 | x4 | x4 | x3[K:bass] x | x4 | x4 | x4 | x4 | x4 | x4 |[M:3/8] x3 | %160
[M:1/8] x |[M:2/4] x4 | x4 | x4 | x4 |] %165

